X:1
T: The Bottle of Punch
C:
R:Jig
Q:180
K:D
M:6/8
L:1/16
|:D4d2 A2F2D2|E2D2E2 G2F2E2|D4d2 A2F2D2|E2D2E2 F2D2B,2|
D4d2 A2F2D2|E2D2E2 F2G2A2|B2d2B2 A2F2D2|E2D2E2 F2D2B,2:|
|:d2f2d2 e2c2e2|B2d2B2 A2B2c2|d2c2d2 e2f2g2|f2a2f2 e2c2A2|
d2f2d2 c2e2c2|B2d2B2 A2B2c2|d2c2B2 A2F2D2|E2D2E2 F2D2B,2:|
